icons/themes/default/menu.svg

<svg viewBox="0 0 20 20" fill="none" xmlns="http://www.w3.org/2000/svg">
<path fill-rule="evenodd" clip-rule="evenodd" d="M17.5 6.55001H2.5V5.45001H17.5V6.55001ZM14.5 14.55H2.5V13.45H14.5V14.55ZM2.5 10.55H10V9.45001H2.5V10.55Z" fill="currentColor"/>
</svg>

<svg xmlns="http://www.w3.org/2000/svg" fill="none" viewBox="0 0 20 20">
  <path fill="currentColor" fill-rule="evenodd" d="M17.5 6.55h-15v-1.1h15v1.1Zm-3 8h-12v-1.1h12v1.1Zm-12-4H10v-1.1H2.5v1.1Z" clip-rule="evenodd"/>
</svg>
